assets/icons/merch.svg

<?xml version="1.0" encoding="UTF-8" standalone="no"?>
<!DOCTYPE svg PUBLIC "-//W3C//DTD SVG 1.1//EN" "http://www.w3.org/Graphics/SVG/1.1/DTD/svg11.dtd">
<svg width="100%" height="100%" viewBox="0 0 576 512" version="1.1" xmlns="http://www.w3.org/2000/svg" xmlns:xlink="http://www.w3.org/1999/xlink" xml:space="preserve" xmlns:serif="http://www.serif.com/" style="fill-rule:evenodd;clip-rule:evenodd;stroke-linejoin:round;stroke-miterlimit:2;">
    <path d="M0,24C0,10.7 10.7,0 24,0L69.5,0C91.5,0 111,12.8 120.1,32L531.1,32C557.4,32 576.6,57 569.7,82.4L528.7,234.7C520.2,266.1 491.7,288 459.2,288L170.7,288L176.1,316.5C178.3,327.8 188.2,336 199.7,336L488,336C501.3,336 512,346.7 512,360C512,373.3 501.3,384 488,384L199.7,384C165.1,384 135.4,359.4 129,325.5L77.4,54.5C76.7,50.7 73.4,48 69.5,48L24,48C10.7,48 0,37.3 0,24ZM128,464C128,437.668 149.668,416 176,416C202.332,416 224,437.668 224,464C224,490.332 202.332,512 176,512C149.668,512 128,490.332 128,464ZM464,416C490.332,416 512,437.668 512,464C512,490.332 490.332,512 464,512C437.668,512 416,490.332 416,464C416,437.668 437.668,416 464,416Z" style="fill:white;fill-rule:nonzero;"/>
</svg>

<svg xmlns="http://www.w3.org/2000/svg" viewBox="0 0 576 512"><!--!Font Awesome Free 6.7.2 by @fontawesome - https://fontawesome.com License - https://fontawesome.com/license/free Copyright 2025 Fonticons, Inc.--><path d="M0 24C0 10.7 10.7 0 24 0L69.5 0c22 0 41.5 12.8 50.6 32l411 0c26.3 0 45.5 25 38.6 50.4l-41 152.3c-8.5 31.4-37 53.3-69.5 53.3l-288.5 0 5.4 28.5c2.2 11.3 12.1 19.5 23.6 19.5L488 336c13.3 0 24 10.7 24 24s-10.7 24-24 24l-288.3 0c-34.6 0-64.3-24.6-70.7-58.5L77.4 54.5c-.7-3.8-4-6.5-7.9-6.5L24 48C10.7 48 0 37.3 0 24zM128 464a48 48 0 1 1 96 0 48 48 0 1 1 -96 0zm336-48a48 48 0 1 1 0 96 48 48 0 1 1 0-96z"/></svg>
